X:1
T:Bilbo Planting His Acorn
T:Bilbo Planting His Acorn
T:Deleted scene from The Hobbit: the Battle of the Five Armies
T:Composed Howard Shore
T:Lyrics by Philippa Boyens and David Salo
C:Composed Howard Shore
Z:Lyrics by Philippa Boyens and David Salo
%%score { ( 1 3 ) | 2 }
L:1/8
Q:1/4=70
M:4/4
K:C
V:1 treble nm="Piano" snm="Pno."
V:3 treble 
V:2 bass 
V:1
!mp! (c8 | _d8) | z4 (_a3 g | g2 _a2 a2 g2) | [_EG]8- | [EG]8 | [_DF]8- | [DF]6 z2 | [_Ac]8- | %9
w: ||||U-||rus.|_||
 [Ac]8 | [Fc]4 _A4- | A8 | [F_A]8 | [_EF_A]8 | [F_A]8 | [_EF_A]8 | [F_A]8 |[M:2/4] [A,CE]4 | %18
w: |||Mî-|zu|in|tar-|sa...||
[M:4/4] z4 z2 z C/D/ | E3 E E G2 E/D/ | C2- C>E D3 C/D/ | E3 E GA- A/E/A/B/ | %22
w: ||||
 Bc- c/B/A/B/ A G2 C/D/ | E3 E A E2 C/D/ | E2- E>E D3 C/D/ | [E,G,C]8 |] %26
w: ||||
V:2
 [F,_A,C]8 | [F,_A,_D]8 | [F,_A,C]8 | [F,_A,_D]8 | [C,G,]4 [C,G,]4 | [C,G,]4 [C,G,]4 | %6
 [_B,,F,]4 [B,,F,]4 | [_B,,F,]4 [B,,F,]4 | [F,,C,]4 [F,,C,]4 | [F,,C,]4 [F,,C,]4 | %10
 [F,,_D,]4 [F,,D,]4 | [F,,_D,]4 [F,,D,]4 | [_D,_A,]4 [D,A,]4 | [_E,_A,]4 [E,A,]4 | %14
 [_D,_A,]4 [D,A,]4 | [_E,_A,]4 [E,A,]4 | [_D,_A,]4 [D,A,]4 |[M:2/4] [A,,E,]4 | %18
[M:4/4] [F,,C,]4 [G,,D,]4 | [A,,E,]4 [A,,E,]4 | [C,E,]4 [G,,D,]4 | [A,,E,]4- [A,,E,]4 | %22
 [F,,C,]4 [G,,D,]4 | [A,,E,]4- [A,,E,]4 | [C,G,]4 [G,,D,]4 | [C,,C,]8 |] %26
V:3
 x8 | x8 | x8 | x8 | x8 | x8 | x8 | x8 | x8 | x8 | x8 | x8 | x8 | x8 | x8 | x8 | x8 |[M:2/4] x4 | %18
[M:4/4] [F,A,C]4 [G,B,D]4 | [A,C]4 [A,C]4 | G,4 [G,B,]4 | [A,C]4- [A,C]4 | [A,CF]4 [G,B,D]4 | %23
 [A,C]4- [A,C]4 | C4 [G,B,]4 | x8 |] %26

